X:109
T:Engelska efter fadern
T:(SvL Halland 109)
R:Engelska
S:Efter Albert Drakenberg
N:Albert Drakenbergs fader hade den efter Adolf Johansson
B:Svenska Låtar Halland
O:Lindomme, Halland
M:2/4
L:1/8
K:G
d|:gG GB/d/|gg gf/g/|ad dB/d/|g/f/e/d/ e/d/B/d/|
c/B/A/G/ F/G/A/B/|c/B/A/G/ FG|1)G2 zd:|2)G2 zD|
|:DG B/c/B/A/|BG G2|DG A/B/c/d/|ed !tenuto!dB/d/|g/f/e/d/ e/d/B/d/|
c/B/A/G/ F/G/A/B/|c/B/A/G/ FG|1)G2 zD:|2)G2 z2|

